X: 23867
T: Lizzy In The Lowground
R: reel
M: 4/4
K: Gmajor
|:G3E DEGA|ABde dBAd|Beed efed|eBdA BGAE|
G3E DEGA|ABde dABd|eBdA BGAB|GEDG EGGF:|
|:G3F GABd|e2bg aged|e2bg aged|e2ge dBAB|
G3F GABd|e2bg aged|e2bg agea|1 gded eggg:|2 gded egdB||

